third_party/noto/noto_2/emoji_u26cf.svg

<svg enable-background="new 0 0 128 128" version="1.1" viewBox="0 0 128 128" xmlns="http://www.w3.org/2000/svg"><path d="m120.57 116.83-6.59 5.7c-2.54 2.19-6.4 1.9-8.57-0.64l-68.34-81.26 10.16-9.33 73.85 77.04c2.25 2.47 2.03 6.3-0.51 8.49z" fill="#A06841"/><path d="m58.42 42.97-11.11-11.59-10.18 9.32 15.52 18.45c2.8-4.93 4.89-10.79 5.77-16.18z" fill="#7D5133"/><path d="m86.38 4.03c-34.97-0.53-54.84 19.46-54.84 19.46s-21.65 20.52-25.99 55.5c-0.03 0.8-0.01 1.51 1 1.73 1.28 0.28 1.59-0.55 1.88-0.99 4.18-8.7 13.4-25.99 32.42-43.61s37.38-25.67 46.38-29.17c0.6-0.21 1.01-0.8 1.01-1.54 0-1.07-0.89-1.39-1.86-1.38z" fill="#82AEC0"/><path d="m37.99 19.63-0.63-0.65c-0.21-0.22-0.56-0.27-0.83-0.13-6.31 3.33-9.25 7.57-10.57 9.85-0.15 0.26-0.12 0.59 0.09 0.82 0.16 0.17 0.35 0.38 0.55 0.59 0.9 0.98 4.18-0.58 7.33-3.47s4.96-6.03 4.06-7.01z" fill="#A06841"/><path d="m39.89 30.9c-26.36 23.56-32.2 49.7-32.2 49.7s0.28-0.08 0.56-0.52c3.8-7.9 12.32-22.79 28.11-38.66 1.61 1.87 7.25 8.42 7.42 8.6 0.9 0.98 4.52-0.75 7.84-3.81s5.29-6.33 4.39-7.31l-7.76-8.37c16.35-13.57 31.11-20.51 39-23.59 0.56-0.2 0.74-0.61 0.74-0.61-0.2 0.02-21.86 1.1-48.1 24.57z" fill="#2F7889"/></svg>

<?xml version="1.0" encoding="utf-8"?>
<!-- Generator: Adobe Illustrator 25.2.3, SVG Export Plug-In . SVG Version: 6.00 Build 0)  -->
<svg version="1.1" id="Layer_1" xmlns="http://www.w3.org/2000/svg" xmlns:xlink="http://www.w3.org/1999/xlink" x="0px" y="0px"
	 viewBox="0 0 128 128" style="enable-background:new 0 0 128 128;" xml:space="preserve">
<path style="fill:#A06841;" d="M120.57,116.83l-6.59,5.7c-2.54,2.19-6.4,1.9-8.57-0.64L37.07,40.63l10.16-9.33l73.85,77.04
	C123.33,110.81,123.11,114.64,120.57,116.83z"/>
<g>
	<path style="fill:#7D5133;" d="M58.42,42.97L47.31,31.38l-10.18,9.32l15.52,18.45C55.45,54.22,57.54,48.36,58.42,42.97z"/>
	<g>
		<path style="fill:#82AEC0;" d="M86.38,4.03L86.38,4.03C51.41,3.5,31.54,23.49,31.54,23.49S9.89,44.01,5.55,78.99
			c-0.03,0.8-0.01,1.51,1,1.73c1.28,0.28,1.59-0.55,1.88-0.99c4.18-8.7,13.4-25.99,32.42-43.61S78.23,10.45,87.23,6.95
			c0.6-0.21,1.01-0.8,1.01-1.54C88.24,4.34,87.35,4.02,86.38,4.03z"/>
	</g>
</g>
<path style="fill:#A06841;" d="M37.99,19.63l-0.63-0.65c-0.21-0.22-0.56-0.27-0.83-0.13c-6.31,3.33-9.25,7.57-10.57,9.85
	c-0.15,0.26-0.12,0.59,0.09,0.82c0.16,0.17,0.35,0.38,0.55,0.59c0.9,0.98,4.18-0.58,7.33-3.47S38.89,20.61,37.99,19.63z"/>
<path style="fill:#2F7889;" d="M39.89,30.9C13.53,54.46,7.69,80.6,7.69,80.6s0.28-0.08,0.56-0.52c3.8-7.9,12.32-22.79,28.11-38.66
	c1.61,1.87,7.25,8.42,7.42,8.6c0.9,0.98,4.52-0.75,7.84-3.81c3.32-3.06,5.29-6.33,4.39-7.31l-7.76-8.37
	c16.35-13.57,31.11-20.51,39-23.59c0.56-0.2,0.74-0.61,0.74-0.61C87.79,6.35,66.13,7.43,39.89,30.9z"/>
</svg>
